dist/img/svg/wa-icon.svg

<svg width="130" height="130" viewBox="0 0 130 130" fill="none" xmlns="http://www.w3.org/2000/svg">
<path d="M38.6714 114L41.3314 104.662H39.0914L37.4674 111.41L35.7034 104.662H34.1494L32.3714 111.41L30.7334 104.662H28.5074L31.1814 114H33.2954L34.9194 107.588L36.5574 114H38.6714ZM50.3689 114V104.662H48.3669V108.33H43.9569V104.662H41.9689V114H43.9569V110.08H48.3669V114H50.3689ZM60.6172 114L57.0192 104.662H54.5272L50.9152 114H53.1832L53.7712 112.418H57.7752L58.3492 114H60.6172ZM57.2292 110.668H54.3172L55.7732 106.65L57.2292 110.668ZM64.4351 114V106.412H67.1511V104.662H59.7031V106.412H62.4331V114H64.4351ZM71.3479 114.168C73.8679 114.168 75.0859 112.88 75.0859 111.172C75.0859 107.686 69.7239 108.68 69.7239 107.196C69.7239 106.636 70.1999 106.258 71.0539 106.258C72.0059 106.258 73.0139 106.58 73.7699 107.28L74.8759 105.824C73.9519 104.97 72.7199 104.522 71.2359 104.522C69.0379 104.522 67.6939 105.81 67.6939 107.364C67.6939 110.878 73.0699 109.744 73.0699 111.396C73.0699 111.928 72.5379 112.432 71.4459 112.432C70.1579 112.432 69.1359 111.858 68.4779 111.172L67.3999 112.684C68.2679 113.566 69.5559 114.168 71.3479 114.168ZM84.6957 114L81.0977 104.662H78.6057L74.9937 114H77.2617L77.8497 112.418H81.8537L82.4277 114H84.6957ZM81.3077 110.668H78.3957L79.8517 106.65L81.3077 110.668ZM87.246 114V110.682H89.626C91.642 110.682 92.762 109.296 92.762 107.672C92.762 106.034 91.656 104.662 89.626 104.662H85.258V114H87.246ZM89.36 108.932H87.246V106.412H89.36C90.144 106.412 90.732 106.888 90.732 107.672C90.732 108.442 90.144 108.932 89.36 108.932ZM95.6823 114V110.682H98.0623C100.078 110.682 101.198 109.296 101.198 107.672C101.198 106.034 100.092 104.662 98.0623 104.662H93.6943V114H95.6823ZM97.7963 108.932H95.6823V106.412H97.7963C98.5803 106.412 99.1683 106.888 99.1683 107.672C99.1683 108.442 98.5803 108.932 97.7963 108.932Z" fill="white"/>
<g opacity="0.5" filter="url(#filter0_f)">
<circle cx="65" cy="65" r="35" fill="#42D691"/>
</g>
<circle cx="65" cy="50" r="40" fill="#42D691"/>
<path d="M74.6992 40.4336C77.3164 43.0508 78.625 46.1172 78.625 49.6328C78.625 53.2266 77.3359 56.293 74.7578 58.832C72.1797 61.3711 69.0938 62.6406 65.5 62.6406C63.2734 62.6406 61.2031 62.1133 59.2891 61.0586L52.375 62.875L54.25 56.1367C53.0781 54.1445 52.4922 51.9766 52.4922 49.6328C52.4922 46.0391 53.7617 42.9727 56.3008 40.4336C58.8398 37.8945 61.9062 36.625 65.5 36.625C69.0938 36.625 72.1602 37.8945 74.6992 40.4336ZM65.5 60.4727C68.4688 60.4727 71.0273 59.418 73.1758 57.3086C75.3242 55.1602 76.3984 52.6016 76.3984 49.6328C76.4375 46.7422 75.3438 44.2031 73.1172 42.0156C71.0078 39.9062 68.4688 38.8516 65.5 38.8516C62.5312 38.8516 59.9727 39.9062 57.8242 42.0156C55.7148 44.125 54.6602 46.6641 54.6602 49.6328C54.6602 51.7031 55.2266 53.6172 56.3594 55.375L56.5938 55.7852L55.4805 59.7695L59.582 58.7148L59.9922 58.9492C61.6719 59.9648 63.5078 60.4727 65.5 60.4727ZM71.418 52.3281C71.8086 52.5234 72.0234 52.6602 72.0625 52.7383C72.1797 52.9727 72.1016 53.5 71.8281 54.3203C71.7109 54.6328 71.3984 54.9648 70.8906 55.3164C70.4219 55.6289 70.0117 55.8047 69.6602 55.8438C68.6445 56 67.3359 55.7266 65.7344 55.0234C63.8203 54.2031 61.9844 52.5625 60.2266 50.1016C59.3281 48.8906 58.8789 47.7773 58.8789 46.7617C58.8789 45.7852 59.25 44.8672 59.9922 44.0078C60.2656 43.7734 60.5586 43.6562 60.8711 43.6562C61.1836 43.6562 61.3984 43.6562 61.5156 43.6562C61.8672 43.6562 62.1016 43.832 62.2188 44.1836C62.8828 45.7852 63.2148 46.5859 63.2148 46.5859C63.332 46.8203 63.3516 47.0156 63.2734 47.1719C63.1172 47.5234 62.9219 47.8359 62.6875 48.1094C62.4531 48.3438 62.3164 48.4805 62.2773 48.5195C62.2383 48.5586 62.2578 48.6953 62.3359 48.9297C62.8828 49.9453 63.4688 50.707 64.0938 51.2148C64.7578 51.7227 65.6367 52.25 66.7305 52.7969C67.043 52.9531 67.2773 52.9336 67.4336 52.7383C67.9414 52.1523 68.293 51.7227 68.4883 51.4492C68.6445 51.2148 68.8789 51.1562 69.1914 51.2734C69.5039 51.3906 70.2461 51.7422 71.418 52.3281Z" fill="white"/>
<defs>
<filter id="filter0_f" x="0" y="0" width="130" height="130" filterUnits="userSpaceOnUse" color-interpolation-filters="sRGB">
<feFlood flood-opacity="0" result="BackgroundImageFix"/>
<feBlend mode="normal" in="SourceGraphic" in2="BackgroundImageFix" result="shape"/>
<feGaussianBlur stdDeviation="15" result="effect1_foregroundBlur"/>
</filter>
</defs>
</svg>

<svg width="130" height="130" viewBox="0 0 130 130" fill="none" xmlns="http://www.w3.org/2000/svg"><path d="M38.671 114l2.66-9.338h-2.24l-1.624 6.748-1.764-6.748H34.15l-1.778 6.748-1.638-6.748h-2.226L31.181 114h2.114l1.624-6.412L36.557 114h2.114zm11.698 0v-9.338h-2.002v3.668h-4.41v-3.668h-1.988V114h1.988v-3.92h4.41V114h2.002zm10.248 0l-3.598-9.338h-2.492L50.915 114h2.268l.588-1.582h4.004L58.35 114h2.268zm-3.388-3.332h-2.912l1.456-4.018 1.456 4.018zM64.435 114v-7.588h2.716v-1.75h-7.448v1.75h2.73V114h2.002zm6.913.168c2.52 0 3.738-1.288 3.738-2.996 0-3.486-5.362-2.492-5.362-3.976 0-.56.476-.938 1.33-.938.952 0 1.96.322 2.716 1.022l1.106-1.456c-.924-.854-2.156-1.302-3.64-1.302-2.198 0-3.542 1.288-3.542 2.842 0 3.514 5.376 2.38 5.376 4.032 0 .532-.532 1.036-1.624 1.036a4.094 4.094 0 01-2.968-1.26l-1.078 1.512c.868.882 2.156 1.484 3.948 1.484zM84.696 114l-3.598-9.338h-2.492L74.994 114h2.268l.588-1.582h4.004l.574 1.582h2.268zm-3.388-3.332h-2.912l1.456-4.018 1.456 4.018zM87.246 114v-3.318h2.38c2.016 0 3.136-1.386 3.136-3.01 0-1.638-1.106-3.01-3.136-3.01h-4.368V114h1.988zm2.114-5.068h-2.114v-2.52h2.114c.784 0 1.372.476 1.372 1.26 0 .77-.588 1.26-1.372 1.26zM95.682 114v-3.318h2.38c2.016 0 3.136-1.386 3.136-3.01 0-1.638-1.106-3.01-3.136-3.01h-4.368V114h1.988zm2.114-5.068h-2.114v-2.52h2.114c.784 0 1.372.476 1.372 1.26 0 .77-.588 1.26-1.372 1.26z" fill="#fff"/><g opacity=".5" filter="url(#filter0_f)"><circle cx="65" cy="65" r="35" fill="#42D691"/></g><circle cx="65" cy="50" r="40" fill="#42D691"/><path d="M74.7 40.434c2.616 2.617 3.925 5.683 3.925 9.199 0 3.594-1.29 6.66-3.867 9.199-2.578 2.54-5.664 3.809-9.258 3.809-2.227 0-4.297-.528-6.21-1.582l-6.915 1.816 1.875-6.738c-1.172-1.992-1.758-4.16-1.758-6.504 0-3.594 1.27-6.66 3.809-9.2 2.539-2.538 5.605-3.808 9.199-3.808 3.594 0 6.66 1.27 9.2 3.809zm-9.2 20.039c2.969 0 5.527-1.055 7.676-3.164 2.148-2.149 3.222-4.707 3.222-7.676.04-2.89-1.054-5.43-3.28-7.617-2.11-2.11-4.65-3.164-7.618-3.164-2.969 0-5.527 1.054-7.676 3.164-2.11 2.109-3.164 4.648-3.164 7.617 0 2.07.567 3.984 1.7 5.742l.234.41-1.114 3.985 4.102-1.055.41.234c1.68 1.016 3.516 1.524 5.508 1.524zm5.918-8.145c.39.195.605.332.644.41.118.235.04.762-.234 1.582-.117.313-.43.645-.937.996-.47.313-.88.489-1.23.528-1.017.156-2.325-.117-3.927-.82-1.914-.82-3.75-2.462-5.507-4.922-.899-1.211-1.348-2.325-1.348-3.34 0-.977.371-1.895 1.113-2.754.274-.235.567-.352.88-.352h.644c.351 0 .586.176.703.528l.996 2.402c.117.234.137.43.058.586a3.803 3.803 0 01-.586.937l-.41.41c-.039.04-.02.176.059.41.547 1.016 1.133 1.778 1.758 2.286.664.508 1.543 1.035 2.637 1.582.312.156.546.137.703-.059.507-.586.859-1.015 1.054-1.289.156-.234.39-.293.703-.176.313.118 1.055.47 2.227 1.055z" fill="#fff"/><defs><filter id="filter0_f" x="0" y="0" width="130" height="130" filterUnits="userSpaceOnUse" color-interpolation-filters="sRGB"><feFlood flood-opacity="0" result="BackgroundImageFix"/><feBlend in="SourceGraphic" in2="BackgroundImageFix" result="shape"/><feGaussianBlur stdDeviation="15" result="effect1_foregroundBlur"/></filter></defs></svg>
